packages/sources/icons/src/vitamix/external-link-line.svg

<svg width="16" height="16" viewBox="0 0 16 16" fill="none" xmlns="http://www.w3.org/2000/svg">
<path fill-rule="evenodd" clip-rule="evenodd" d="M14 7.33333V2H8.66668V3.33333H11.7233L6.52868 8.52867L7.47134 9.47133L12.6667 4.27533V7.33333H14ZM6.66667 5.33333V4H2.66667C2.29848 4 2 4.29848 2 4.66667V13.3333C2 13.7015 2.29848 14 2.66667 14H11.3333C11.7015 14 12 13.7015 12 13.3333V9.33333H10.6667V12.6667H3.33333V5.33333H6.66667Z" fill="#001018"/>
</svg>

<svg width="16" height="16" fill="none" xmlns="http://www.w3.org/2000/svg"><path fill-rule="evenodd" clip-rule="evenodd" d="M14 7.333V2H8.667v1.333h3.056L6.53 8.53l.942.942 5.196-5.196v3.058H14zm-7.333-2V4h-4A.667.667 0 0 0 2 4.667v8.666c0 .368.298.667.667.667h8.666a.667.667 0 0 0 .667-.667v-4h-1.333v3.334H3.333V5.333h3.334z" fill="#001018"/></svg>
